build/images/service-image/service-icon/arrow-up.svg

<svg xmlns="http://www.w3.org/2000/svg" viewBox="0 0 22 12"><path fill="#CCC" d="M3.138 11.474l7.859-7.858 7.961 7.962h.001a1.5 1.5 0 002.12-2.122h.001l-9-9h-.001A1.495 1.495 0 0011-.002h-.007c-.424 0-.806.176-1.079.458l-9.001 9 .004.004a1.5 1.5 0 102.221 2.014z"/></svg>

<svg 
 xmlns="http://www.w3.org/2000/svg"
 xmlns:xlink="http://www.w3.org/1999/xlink"
 viewBox="0 0 22 12">
<path fill="rgb(204, 204, 204)"
 d="M3.138,11.474 L10.997,3.616 L18.958,11.578 L18.959,11.578 C19.229,11.837 19.596,11.998 20.000,11.998 C20.828,11.998 21.500,11.326 21.500,10.497 C21.500,10.093 21.340,9.726 21.079,9.456 L21.080,9.456 L12.080,0.456 L12.079,0.456 C11.807,0.174 11.424,-0.002 11.000,-0.002 C10.999,-0.002 10.998,-0.002 10.997,-0.002 C10.996,-0.002 10.994,-0.002 10.993,-0.002 C10.569,-0.002 10.187,0.174 9.914,0.456 L9.914,0.456 L0.913,9.456 L0.917,9.460 C0.659,9.730 0.500,10.095 0.500,10.497 C0.500,11.326 1.172,11.998 2.000,11.998 C2.455,11.998 2.862,11.794 3.138,11.474 Z"/>
</svg>
